X: 23
T:Oh, Suzannah
M:4/4
L:1/4
Q:120
R:March
K:D
D/2E/2|"D"FA A>B|AF D>E|FFED|"A"E3 D/2E/2|
"D"FA A>B|AF D>E|FF"A"EE|1 "D"D2-D:|2 "D"D2-D2|:!
"G"G2G2|BB2B|"D"AAFD|"A"E3 D/2E/2|
"D"FA A>B|AF D>E|FF"A"EE|"D"D2-D2|
